assets/img/braze_icons/tablet-01.svg

<svg fill="none" height="24" viewBox="0 0 24 24" width="24" xmlns="http://www.w3.org/2000/svg"><path clip-rule="evenodd" d="m16.8385 1h-9.67704c-.52713-.000016-.98192-.000031-1.35649.03057-.39534.0323-.78856.10362-1.16694.29641-.56449.28762-1.02343.74656-1.31105 1.31105-.19279.37838-.26411.7716-.29641 1.16694-.0306.37457-.03059.82932-.03057 1.35645v13.67708c-.00002.5272-.00003.982.03057 1.3565.0323.3954.10362.7886.29641 1.167.28762.5645.74656 1.0234 1.31105 1.311.37838.1928.7716.2641 1.16694.2964.37457.0306.82933.0306 1.35647.0306h9.67716c.5271 0 .9819 0 1.3564-.0306.3954-.0323.7886-.1036 1.167-.2964.5645-.2876 1.0234-.7465 1.311-1.311.1928-.3784.2641-.7716.2964-1.167.0306-.3745.0306-.8293.0306-1.3564v-13.67716c0-.52714 0-.9819-.0306-1.35647-.0323-.39534-.1036-.78856-.2964-1.16694-.2876-.56449-.7465-1.02343-1.311-1.31105-.3784-.19279-.7716-.26411-1.167-.29641-.3745-.030601-.8293-.030586-1.3565-.03057zm-4.8385 15c-.8284 0-1.5.6716-1.5 1.5s.6716 1.5 1.5 1.5 1.5-.6716 1.5-1.5-.6716-1.5-1.5-1.5z" fill="#801ed7" fill-rule="evenodd"/></svg>

<svg width="24" height="24" viewBox="0 0 24 24" fill="none" xmlns="http://www.w3.org/2000/svg">
<path fill-rule="evenodd" clip-rule="evenodd" d="M16.8385 1H7.16146C6.63433 0.999984 6.17954 0.999969 5.80497 1.03057C5.40963 1.06287 5.01641 1.13419 4.63803 1.32698C4.07354 1.6146 3.6146 2.07354 3.32698 2.63803C3.13419 3.01641 3.06287 3.40963 3.03057 3.80497C2.99997 4.17954 2.99998 4.63429 3 5.16142V18.8385C2.99998 19.3657 2.99997 19.8205 3.03057 20.195C3.06287 20.5904 3.13419 20.9836 3.32698 21.362C3.6146 21.9265 4.07354 22.3854 4.63803 22.673C5.01641 22.8658 5.40963 22.9371 5.80497 22.9694C6.17954 23 6.6343 23 7.16144 23H16.8386C17.3657 23 17.8205 23 18.195 22.9694C18.5904 22.9371 18.9836 22.8658 19.362 22.673C19.9265 22.3854 20.3854 21.9265 20.673 21.362C20.8658 20.9836 20.9371 20.5904 20.9694 20.195C21 19.8205 21 19.3657 21 18.8386V5.16144C21 4.6343 21 4.17954 20.9694 3.80497C20.9371 3.40963 20.8658 3.01641 20.673 2.63803C20.3854 2.07354 19.9265 1.6146 19.362 1.32698C18.9836 1.13419 18.5904 1.06287 18.195 1.03057C17.8205 0.999969 17.3657 0.999984 16.8385 1ZM12 16C11.1716 16 10.5 16.6716 10.5 17.5C10.5 18.3284 11.1716 19 12 19C12.8284 19 13.5 18.3284 13.5 17.5C13.5 16.6716 12.8284 16 12 16Z" fill="#801ED7"/>
</svg>
